images/icons/PBS-facebook_like_line.svg

<?xml version="1.0" encoding="UTF-8" standalone="no"?>
<svg width="256px" height="256px" viewBox="0 0 256 256" version="1.1" xmlns="http://www.w3.org/2000/svg" xmlns:xlink="http://www.w3.org/1999/xlink">
    <!-- Generator: Sketch 39.1 (31720) - http://www.bohemiancoding.com/sketch -->
    <title>PBS-facebook_like_line</title>
    <desc>Created with Sketch.</desc>
    <defs>
        <polygon id="path-1" points="98.5 169 0 169 0 3.21074124e-14 98.5 3.21074124e-14 197 0 197 169 98.5 169"></polygon>
    </defs>
    <g id="Page-1" stroke="none" stroke-width="1" fill="none" fill-rule="evenodd">
        <g id="PBS-facebook_like_line">
            <g id="Page-1" transform="translate(31.000000, 44.000000)">
                <mask id="mask-2" fill="white">
                    <use xlink:href="#path-1"></use>
                </mask>
                <g id="Clip-2"></g>
                <path d="M170.50027,92.1818182 C170.50027,92.1818182 173.644306,95.3449198 174.542602,101.219251 C174.99175,110.708556 163.763051,112.967914 163.763051,112.967914 C163.763051,112.967914 169.601975,116.582888 169.601975,121.101604 C169.601975,131.494652 157.47498,132.398396 157.47498,132.398396 C157.47498,132.398396 162.415607,136.013369 162.415607,141.887701 C162.415607,150.925134 154.330944,152.73262 154.330944,152.73262 L98.1874492,152.73262 C93.6959696,152.73262 70.7894237,141.435829 70.7894237,141.435829 L67.645388,141.435829 L67.645388,79.5294118 C67.645388,79.5294118 78.424939,78.1737968 81.1198268,77.7219251 C83.8147145,77.2700535 103.128077,42.4759358 103.128077,42.4759358 L103.128077,22.5935829 C103.128077,22.5935829 104.924669,17.6229947 111.21274,16.7192513 C121.543143,17.171123 125.585475,27.1122995 127.831214,32.5347594 C130.076954,37.9572193 129.627806,50.6096257 126.932919,59.1951872 C124.238031,67.7807487 127.382066,71.8475936 127.382066,71.8475936 L173.644306,71.8475936 C173.644306,71.8475936 180.830674,73.2032086 180.830674,82.2406417 C180.381526,90.3743316 170.50027,92.1818182 170.50027,92.1818182 L170.50027,92.1818182 Z M50.5777656,152.280749 L24.0780361,152.280749 L17.3408167,68.2326203 L50.1286176,68.2326203 L50.1286176,152.280749 L50.5777656,152.280749 Z M190.711929,98.959893 C194.75426,94.4411765 197,88.5668449 197,81.7887701 C197,66.4251337 186.220449,57.3877005 176.339194,55.1283422 C175.440898,55.1283422 174.542602,54.6764706 173.195158,54.6764706 L144.000541,54.6764706 C145.797133,44.7352941 145.347985,33.4385027 142.203949,25.7566845 C139.509061,19.4304813 131.873546,0.903743316 111.21274,0 L110.314444,0 L107.619556,0 C96.3908573,1.80748663 89.653638,9.48930481 86.9587502,15.815508 C86.0604543,17.6229947 85.6113063,19.8823529 85.6113063,22.1417112 L85.6113063,37.5053476 C80.6706788,46.5427807 74.8317554,56.4839572 71.2385717,61.9064171 C68.094536,62.3582888 64.5013523,62.8101604 64.5013523,62.8101604 C62.2556125,56.4839572 56.4166891,51.9652406 49.2303217,51.9652406 L16.4425208,51.9652406 C11.5018932,51.9652406 7.01041365,54.2245989 3.86637794,57.8395722 C0.722342236,61.4545455 -0.625101638,66.4251337 0.273194278,71.3957219 L7.01041365,155.44385 C8.35785753,163.125668 15.0950769,169 23.1797401,169 L49.6794697,169 C56.865837,169 63.1539084,164.029412 65.3996482,157.703209 L66.7470921,157.703209 C90.1027859,169 95.0434135,169 97.7383012,169 L153.881796,169 C155.22924,169 156.127536,169 157.47498,168.548128 C167.356235,166.28877 178.135786,156.799465 178.135786,141.887701 L178.135786,139.628342 C182.627265,135.109626 185.322153,128.783422 185.322153,121.101604 C185.322153,119.745989 185.322153,118.842246 184.873005,117.486631 C188.466189,112.967914 190.262781,107.093583 189.813633,100.315508 C190.711929,99.8636364 190.711929,99.4117647 190.711929,98.959893 L190.711929,98.959893 Z" id="Fill-1" fill="#1A1A1A" mask="url(#mask-2)"></path>
            </g>
        </g>
    </g>
</svg>

<svg width="256" height="256" viewBox="0 0 256 256" xmlns="http://www.w3.org/2000/svg" xmlns:xlink="http://www.w3.org/1999/xlink"><title>PBS-facebook_like_line</title><defs><path id="a" d="M98.5 169H0V0h197v169H98.5z"/></defs><g transform="translate(31 44)" fill="none" fill-rule="evenodd"><mask id="b" fill="#fff"><use xlink:href="#a"/></mask><path d="M170.5 92.182s3.144 3.163 4.043 9.037c.449 9.49-10.78 11.749-10.78 11.749s5.839 3.615 5.839 8.134c0 10.393-12.127 11.296-12.127 11.296s4.94 3.615 4.94 9.49c0 9.037-8.084 10.845-8.084 10.845H98.187c-4.491 0-27.398-11.297-27.398-11.297h-3.144V79.529s10.78-1.355 13.475-1.807c2.695-.452 22.008-35.246 22.008-35.246V22.594s1.797-4.971 8.085-5.875c10.33.452 14.372 10.393 16.618 15.816 2.246 5.422 1.797 18.075-.898 26.66-2.695 8.586.45 12.653.45 12.653h46.261s7.187 1.355 7.187 10.393c-.45 8.133-10.33 9.94-10.33 9.94zM50.578 152.28h-26.5l-6.737-84.048h32.788v84.048h.449zM190.712 98.96C194.754 94.44 197 88.567 197 81.789c0-15.364-10.78-24.401-20.66-26.66-.9 0-1.797-.453-3.145-.453h-29.194c1.796-9.94 1.347-21.237-1.797-28.92C139.509 19.43 131.874.905 111.213 0h-3.593C96.39 1.807 89.654 9.49 86.959 15.816c-.899 1.807-1.348 4.066-1.348 6.326v15.363c-4.94 9.038-10.78 18.979-14.372 24.401-3.144.452-6.738.904-6.738.904-2.245-6.326-8.084-10.845-15.27-10.845H16.442c-4.941 0-9.433 2.26-12.577 5.875S-.625 66.425.273 71.396l6.737 84.048C8.358 163.126 15.095 169 23.18 169h26.5c7.186 0 13.474-4.97 15.72-11.297h1.347C90.103 169 95.043 169 97.738 169h56.144c1.347 0 2.246 0 3.593-.452 9.881-2.26 20.66-11.749 20.66-26.66v-2.26c4.492-4.518 7.187-10.845 7.187-18.526 0-1.356 0-2.26-.449-3.615 3.593-4.52 5.39-10.393 4.94-17.171.899-.452.899-.904.899-1.356z" fill="#1A1A1A" mask="url(#b)"/></g></svg>
